COLOR/action 16/16/zoom-select.svg

<svg height="16" width="16" xmlns="http://www.w3.org/2000/svg"><g transform="matrix(1.1999998 0 0 1.1999998 -26.113276 -4.38906)"><path d="m1 1v4h2v-2h2v-2zm5.5 0v2h3v-2zm4.5 0v2h2v2h2v-4zm-10 5.5v3h2v-3zm12 0v3h2v-3zm-12 4.5v4h4v-2h-2v-2zm12 0v2h-2v2h4v-4zm-6.5 2v2h3v-2z" fill="#1a7fd4" transform="matrix(.71428571 0 0 .71428571 22.713448 4.609933)"/><g fill="none"><path d="m23.427734 5.3242188v2.8571429h1.428572v-1.4285714h1.428571v-1.4285714z"/><path d="m23.427734 15.324219v-2.857143h1.428572v1.428571h1.428571v1.428572z"/><g transform="matrix(-1 0 0 -1 36.427734 18.324219)"><path d="m3 3-.0000001 2.8571428h1.4285714v-1.4285714h1.4285714v-1.4285715z"/><path d="m3 13-.0000001-2.857143h1.4285714v1.428572h1.4285714v1.428571z"/></g><path d="m23.427734 11.395647v-2.1428571h1.428572v2.1428571z"/><path d="m31.999163 11.395647v-2.1428571h1.428572v2.1428571z"/><path d="m29.499164 6.7527905h-2.142858v-1.4285716h2.142858z"/><path d="m29.499164 15.324219h-2.142858v-1.428572h2.142858z"/></g></g><g transform="matrix(1.1999998 0 0 1.1999998 -26.113276 -4.38906)"><path d="m1 1v4h2v-2h2v-2zm5.5 0v2h3v-2zm4.5 0v2h2v2h2v-4zm-10 5.5v3h2v-3zm12 0v3h2v-3zm-12 4.5v4h4v-2h-2v-2zm12 0v2h-2v2h4v-4zm-6.5 2v2h3v-2z" fill="#1a7fd4" transform="matrix(.71428571 0 0 .71428571 22.713448 4.609933)"/><g fill="none"><path d="m23.427734 5.3242188v2.8571429h1.428572v-1.4285714h1.428571v-1.4285714z"/><path d="m23.427734 15.324219v-2.857143h1.428572v1.428571h1.428571v1.428572z"/><g transform="matrix(-1 0 0 -1 36.427734 18.324219)"><path d="m3 3-.0000001 2.8571428h1.4285714v-1.4285714h1.4285714v-1.4285715z"/><path d="m3 13-.0000001-2.857143h1.4285714v1.428572h1.4285714v1.428571z"/></g><path d="m23.427734 11.395647v-2.1428571h1.428572v2.1428571z"/><path d="m31.999163 11.395647v-2.1428571h1.428572v2.1428571z"/><path d="m29.499164 6.7527905h-2.142858v-1.4285716h2.142858z"/><path d="m29.499164 15.324219h-2.142858v-1.428572h2.142858z"/></g></g><g transform="matrix(1.1999998 0 0 1.1999998 -51.265818 -6.668721)"><path d="m44.388188 7.2239368v.4166668h2.856446v-.4166668zm3.929037 0v.4166668h2.141927v-.4166668zm3.212891 0v.4166668h2.858073v-.4166668zm-7.141928 3.9290372v.415039h1.429036v-.415039zm8.570964 0v.415039h1.429037v-.415039zm-8.570964 3.212891v.416667h1.429036v-.416667zm8.570964 0v.416667h1.429037v-.416667zm-7.141928 1.429036v.416667h1.42741v-.416667zm2.500001 0v.416667h2.141927v-.416667zm3.212891 0v.416667h1.429036v-.416667z" fill="#fff" opacity=".3" stroke-width=".714286"/><g fill="none"><path d="m23.427734 5.3242188v2.8571429h1.428572v-1.4285714h1.428571v-1.4285714z"/><path d="m23.427734 15.324219v-2.857143h1.428572v1.428571h1.428571v1.428572z"/><g transform="matrix(-1 0 0 -1 36.427734 18.324219)"><path d="m3 3-.0000001 2.8571428h1.4285714v-1.4285714h1.4285714v-1.4285715z"/><path d="m3 13-.0000001-2.857143h1.4285714v1.428572h1.4285714v1.428571z"/></g><path d="m23.427734 11.395647v-2.1428571h1.428572v2.1428571z"/><path d="m31.999163 11.395647v-2.1428571h1.428572v2.1428571z"/><path d="m29.499164 6.7527905h-2.142858v-1.4285716h2.142858z"/><path d="m29.499164 15.324219h-2.142858v-1.428572h2.142858z"/></g><path d="m54.388189 17.223937v-.416667h-2.856446v.416667zm-3.929037 0v-.416667h-2.141927v.416667zm-3.212891 0v-.416667h-2.858073v.416667zm7.141928-3.929037v-.415039h-1.429036v.415039zm-8.570964 0v-.415039h-1.429037v.415039zm8.570964-3.212891v-.4166671h-1.429036v.4166671zm-8.570964 0v-.4166671h-1.429037v.4166671zm7.141928-1.4290361v-.416667h-1.42741v.416667zm-2.500001 0v-.416667h-2.141927v.416667zm-3.212891 0v-.416667h-1.429036v.416667z" opacity=".2" stroke-width=".714286"/></g></svg>

<?xml version="1.0" encoding="UTF-8" standalone="no"?>
<svg
   xmlns:dc="http://purl.org/dc/elements/1.1/"
   xmlns:cc="http://creativecommons.org/ns#"
   xmlns:rdf="http://www.w3.org/1999/02/22-rdf-syntax-ns#"
   xmlns:svg="http://www.w3.org/2000/svg"
   xmlns="http://www.w3.org/2000/svg"
   xmlns:sodipodi="http://sodipodi.sourceforge.net/DTD/sodipodi-0.dtd"
   xmlns:inkscape="http://www.inkscape.org/namespaces/inkscape"
   height="16"
   width="16"
   version="1.1"
   id="svg26"
   sodipodi:docname="zoom-select.svg"
   inkscape:version="0.92.4 (5da689c313, 2019-01-14)">
  <metadata
     id="metadata32">
    <rdf:RDF>
      <cc:Work
         rdf:about="">
        <dc:format>image/svg+xml</dc:format>
        <dc:type
           rdf:resource="http://purl.org/dc/dcmitype/StillImage" />
      </cc:Work>
    </rdf:RDF>
  </metadata>
  <defs
     id="defs30" />
  <sodipodi:namedview
     pagecolor="#ffffff"
     bordercolor="#808080"
     borderopacity="1"
     objecttolerance="10"
     gridtolerance="10"
     guidetolerance="10"
     inkscape:pageopacity="0"
     inkscape:pageshadow="2"
     inkscape:window-width="1920"
     inkscape:window-height="1016"
     id="namedview28"
     showgrid="false"
     inkscape:zoom="14.75"
     inkscape:cx="-4.9830508"
     inkscape:cy="8"
     inkscape:window-x="0"
     inkscape:window-y="27"
     inkscape:window-maximized="1"
     inkscape:current-layer="g869" />
  <g
     transform="matrix(1.1999998,0,0,1.1999998,-26.113276,-4.3890599)"
     id="g24">
    <path
       d="M 1,1 V 5 H 3 V 3 H 5 V 1 Z m 5.5,0 v 2 h 3 V 1 Z M 11,1 v 2 h 2 v 2 h 2 V 1 Z M 1,6.5 v 3 h 2 v -3 z m 12,0 v 3 h 2 v -3 z M 1,11 v 4 H 5 V 13 H 3 v -2 z m 12,0 v 2 h -2 v 2 h 4 v -4 z m -6.5,2 v 2 h 3 v -2 z"
       transform="matrix(0.71428571,0,0,0.71428571,22.713448,4.609933)"
       id="path2"
       inkscape:connector-curvature="0"
       style="fill:#1a7fd4" />
    <g
       id="g22"
       style="fill:none">
      <path
         d="m 23.427734,5.3242188 v 2.8571429 h 1.428572 V 6.7527903 h 1.428571 V 5.3242189 Z"
         id="path4"
         inkscape:connector-curvature="0" />
      <path
         d="m 23.427734,15.324219 v -2.857143 h 1.428572 v 1.428571 h 1.428571 v 1.428572 z"
         id="path6"
         inkscape:connector-curvature="0" />
      <g
         transform="rotate(180,18.213867,9.1621095)"
         id="g12">
        <path
           d="m 3,3 -10e-8,2.8571428 H 4.4285713 V 4.4285714 H 5.8571427 V 2.9999999 Z"
           id="path8"
           inkscape:connector-curvature="0" />
        <path
           d="m 3,13 -10e-8,-2.857143 h 1.4285714 v 1.428572 H 5.8571427 V 13 Z"
           id="path10"
           inkscape:connector-curvature="0" />
      </g>
      <path
         d="M 23.427734,11.395647 V 9.2527899 h 1.428572 v 2.1428571 z"
         id="path14"
         inkscape:connector-curvature="0" />
      <path
         d="M 31.999163,11.395647 V 9.2527899 h 1.428572 v 2.1428571 z"
         id="path16"
         inkscape:connector-curvature="0" />
      <path
         d="M 29.499164,6.7527905 H 27.356306 V 5.3242189 h 2.142858 z"
         id="path18"
         inkscape:connector-curvature="0" />
      <path
         d="m 29.499164,15.324219 h -2.142858 v -1.428572 h 2.142858 z"
         id="path20"
         inkscape:connector-curvature="0" />
    </g>
  </g>
  <g
     id="g845"
     transform="matrix(1.1999998,0,0,1.1999998,-26.113276,-4.3890599)">
    <path
       style="fill:#1a7fd4"
       inkscape:connector-curvature="0"
       id="path823"
       transform="matrix(0.71428571,0,0,0.71428571,22.713448,4.609933)"
       d="M 1,1 V 5 H 3 V 3 H 5 V 1 Z m 5.5,0 v 2 h 3 V 1 Z M 11,1 v 2 h 2 v 2 h 2 V 1 Z M 1,6.5 v 3 h 2 v -3 z m 12,0 v 3 h 2 v -3 z M 1,11 v 4 H 5 V 13 H 3 v -2 z m 12,0 v 2 h -2 v 2 h 4 v -4 z m -6.5,2 v 2 h 3 v -2 z" />
    <g
       style="fill:none"
       id="g843">
      <path
         inkscape:connector-curvature="0"
         id="path825"
         d="m 23.427734,5.3242188 v 2.8571429 h 1.428572 V 6.7527903 h 1.428571 V 5.3242189 Z" />
      <path
         inkscape:connector-curvature="0"
         id="path827"
         d="m 23.427734,15.324219 v -2.857143 h 1.428572 v 1.428571 h 1.428571 v 1.428572 z" />
      <g
         id="g833"
         transform="rotate(180,18.213867,9.1621095)">
        <path
           inkscape:connector-curvature="0"
           id="path829"
           d="m 3,3 -10e-8,2.8571428 H 4.4285713 V 4.4285714 H 5.8571427 V 2.9999999 Z" />
        <path
           inkscape:connector-curvature="0"
           id="path831"
           d="m 3,13 -10e-8,-2.857143 h 1.4285714 v 1.428572 H 5.8571427 V 13 Z" />
      </g>
      <path
         inkscape:connector-curvature="0"
         id="path835"
         d="M 23.427734,11.395647 V 9.2527899 h 1.428572 v 2.1428571 z" />
      <path
         inkscape:connector-curvature="0"
         id="path837"
         d="M 31.999163,11.395647 V 9.2527899 h 1.428572 v 2.1428571 z" />
      <path
         inkscape:connector-curvature="0"
         id="path839"
         d="M 29.499164,6.7527905 H 27.356306 V 5.3242189 h 2.142858 z" />
      <path
         inkscape:connector-curvature="0"
         id="path841"
         d="m 29.499164,15.324219 h -2.142858 v -1.428572 h 2.142858 z" />
    </g>
  </g>
  <g
     transform="matrix(1.1999998,0,0,1.1999998,-51.265818,-6.6687209)"
     id="g869">
    <path
       style="fill:#ffffff;stroke-width:0.71428567;fill-opacity:1;opacity:0.3"
       d="m 44.388188,7.2239368 v 0.4166668 h 2.856446 V 7.2239368 Z m 3.929037,0 v 0.4166668 h 2.141927 V 7.2239368 Z m 3.212891,0 v 0.4166668 h 2.858073 V 7.2239368 Z m -7.141928,3.9290372 v 0.415039 h 1.429036 v -0.415039 z m 8.570964,0 v 0.415039 h 1.429037 v -0.415039 z m -8.570964,3.212891 v 0.416667 h 1.429036 v -0.416667 z m 8.570964,0 v 0.416667 h 1.429037 v -0.416667 z m -7.141928,1.429036 v 0.416667 h 1.42741 v -0.416667 z m 2.500001,0 v 0.416667 h 2.141927 v -0.416667 z m 3.212891,0 v 0.416667 h 1.429036 v -0.416667 z"
       id="path847"
       inkscape:connector-curvature="0" />
    <g
       id="g867"
       style="fill:none">
      <path
         d="m 23.427734,5.3242188 v 2.8571429 h 1.428572 V 6.7527903 h 1.428571 V 5.3242189 Z"
         id="path849"
         inkscape:connector-curvature="0" />
      <path
         d="m 23.427734,15.324219 v -2.857143 h 1.428572 v 1.428571 h 1.428571 v 1.428572 z"
         id="path851"
         inkscape:connector-curvature="0" />
      <g
         transform="rotate(180,18.213867,9.1621095)"
         id="g857">
        <path
           d="m 3,3 -10e-8,2.8571428 H 4.4285713 V 4.4285714 H 5.8571427 V 2.9999999 Z"
           id="path853"
           inkscape:connector-curvature="0" />
        <path
           d="m 3,13 -10e-8,-2.857143 h 1.4285714 v 1.428572 H 5.8571427 V 13 Z"
           id="path855"
           inkscape:connector-curvature="0" />
      </g>
      <path
         d="M 23.427734,11.395647 V 9.2527899 h 1.428572 v 2.1428571 z"
         id="path859"
         inkscape:connector-curvature="0" />
      <path
         d="M 31.999163,11.395647 V 9.2527899 h 1.428572 v 2.1428571 z"
         id="path861"
         inkscape:connector-curvature="0" />
      <path
         d="M 29.499164,6.7527905 H 27.356306 V 5.3242189 h 2.142858 z"
         id="path863"
         inkscape:connector-curvature="0" />
      <path
         d="m 29.499164,15.324219 h -2.142858 v -1.428572 h 2.142858 z"
         id="path865"
         inkscape:connector-curvature="0" />
    </g>
    <path
       inkscape:connector-curvature="0"
       id="path874"
       d="M 54.388189,17.223937 V 16.80727 h -2.856446 v 0.416667 z m -3.929037,0 V 16.80727 h -2.141927 v 0.416667 z m -3.212891,0 V 16.80727 h -2.858073 v 0.416667 z M 54.388189,13.2949 V 12.879861 H 52.959153 V 13.2949 Z m -8.570964,0 V 12.879861 H 44.388188 V 13.2949 Z m 8.570964,-3.212891 V 9.6653419 h -1.429036 v 0.4166671 z m -8.570964,0 V 9.6653419 h -1.429037 v 0.4166671 z m 7.141928,-1.4290361 v -0.416667 h -1.42741 v 0.416667 z m -2.500001,0 v -0.416667 h -2.141927 v 0.416667 z m -3.212891,0 v -0.416667 h -1.429036 v 0.416667 z"
       style="opacity:0.2;fill:#000000;fill-opacity:1;stroke-width:0.71428567" />
  </g>
</svg>
